X: 122
T:Bucks of Oranmore, The
R:reel
D:Stockton's Wing
Z:id:hn-reel-148
M:C|
K:D
A2FA ~A2dB|ADFA BE~E2|1 A2FA ~A2Bd|egfd edBd:|2 DEFG AFAB|defd ecdB||
|:AD~D2 ADBD|ADFA BE~E2|1 AD~D2 AFAB |defd efdB:|2 DEFG AFAB|defd efge||
|:a2fd efdf|a2fd eB (3BAB|1 a2fd efdf|gefd edBd:|2 fa~a2 bfaf|defd e2de||
|:f2df efde|f2df edBd|1 f2df efdf|gefd edBd:|2 fa~a2 bfaf|defd e2dB||
Adfd edfd|Adfd edBd|1Adfd edef|gefd edBd:|2fa~a2 b2 af|d2 fd edBd||
